X: 3262
T: Fangeskotsk
B:[[Notböcker/Melodier til gamle danske Almuedanse for Violin solo]]
O:Danmark
Z:Søren Bak Vestergaard
M: 3/8
L: 1/8
K: D
uA|A2 d|dcd|(.e2.c)|A2 (A/c/)|e2 e|e^de|(.a2 .c)|1 d2:|2 d2 z|| \
|:vafd|afd|gab|a3|afd|afd|gec|1 d2z:|2 d2|]
(:musicend:)
(:music:)
